SVG_Azure_Grouped/Management/Application Insights User.svg

<?xml version="1.0" encoding="UTF-8" standalone="no"?>
<!-- Generated by Microsoft Visio, SVG Export Application Insights User.svg Page-1 -->

<svg
   xmlns:dc="http://purl.org/dc/elements/1.1/"
   xmlns:cc="http://creativecommons.org/ns#"
   xmlns:rdf="http://www.w3.org/1999/02/22-rdf-syntax-ns#"
   xmlns:svg="http://www.w3.org/2000/svg"
   xmlns="http://www.w3.org/2000/svg"
   xmlns:sodipodi="http://sodipodi.sourceforge.net/DTD/sodipodi-0.dtd"
   xmlns:inkscape="http://www.inkscape.org/namespaces/inkscape"
   width="0.59056848in"
   height="0.78735709in"
   viewBox="0 0 42.520949 56.689998"
   xml:space="preserve"
   class="st3"
   version="1.1"
   id="svg24"
   sodipodi:docname="Application Insights User.svg"
   style="font-size:12px;overflow:visible;color-interpolation-filters:sRGB;fill:none;fill-rule:evenodd;stroke-linecap:square;stroke-miterlimit:3"
   inkscape:version="0.92.5 (2060ec1f9f, 2020-04-08)"><metadata
   id="metadata30"><rdf:RDF><cc:Work
       rdf:about=""><dc:format>image/svg+xml</dc:format><dc:type
         rdf:resource="http://purl.org/dc/dcmitype/StillImage" /></cc:Work></rdf:RDF></metadata><defs
   id="defs28" /><sodipodi:namedview
   pagecolor="#ffffff"
   bordercolor="#666666"
   borderopacity="1"
   objecttolerance="10"
   gridtolerance="10"
   guidetolerance="10"
   inkscape:pageopacity="0"
   inkscape:pageshadow="2"
   inkscape:window-width="640"
   inkscape:window-height="480"
   id="namedview26"
   showgrid="false"
   inkscape:zoom="1.7193066"
   inkscape:cx="28.346323"
   inkscape:cy="23.279613"
   inkscape:window-x="0"
   inkscape:window-y="0"
   inkscape:window-maximized="0"
   inkscape:current-layer="svg24" />
	<style
   type="text/css"
   id="style2">
	<![CDATA[
		.st1 {fill:#59b4d9;stroke:none;stroke-linecap:butt;stroke-width:12.24}
		.st2 {fill:#ffffff;fill-opacity:0.2;stroke:none;stroke-linecap:butt;stroke-width:12.24}
		.st3 {fill:none;fill-rule:evenodd;font-size:12px;overflow:visible;stroke-linecap:square;stroke-miterlimit:3}
	]]>
	</style>

	<g
   id="g22"
   transform="translate(-12.240156,-12.2443)">
		<title
   id="title4">Page-1</title>
		<g
   id="group13193-1"
   transform="translate(12.24,-34.0157)">
			<title
   id="title6">Application Insights User.13193</title>
			<g
   id="group13194-2">
				<title
   id="title8">Sheet.13194</title>
				<g
   id="shape13195-3"
   transform="translate(0.00114918)">
					<title
   id="title10">Sheet.13195</title>
					<path
   d="m 33.16,57.9 c 0,6.43 -5.33,11.64 -11.9,11.64 -6.58,0 -11.9,-5.21 -11.9,-11.64 0,-6.43 5.32,-11.64 11.9,-11.64 6.57,0 11.9,5.21 11.9,11.64 z m -3.2,15.63 -8.7,11.93 -8.71,-11.93 H 0 v 29.42 H 42.52 V 73.53 Z"
   class="st1"
   id="path12"
   inkscape:connector-curvature="0"
   style="fill:#59b4d9;stroke:none;stroke-width:12.23999977;stroke-linecap:butt" />
				</g>
				<g
   id="shape13196-5">
					<title
   id="title15">Sheet.13196</title>
					<path
   d="m 9.36,57.9 c 0,6.33 5.17,11.48 11.61,11.63 l 2.99,-22.96 a 11.917,11.7581 -180 0 0 -2.7,-0.31 c -6.57,0 -11.9,5.21 -11.9,11.64 z m 3.2,15.63 H 0 v 29.42 H 16.67 L 19.3,82.78 Z"
   class="st2"
   id="path17"
   inkscape:connector-curvature="0"
   style="fill:#ffffff;fill-opacity:0.2;stroke:none;stroke-width:12.23999977;stroke-linecap:butt" />
				</g>
			</g>
		</g>
	</g>
</svg>

<?xml version="1.0" encoding="UTF-8" standalone="no"?>
<!DOCTYPE svg PUBLIC "-//W3C//DTD SVG 1.1//EN" "http://www.w3.org/Graphics/SVG/1.1/DTD/svg11.dtd">
<!-- Generated by Microsoft Visio, SVG Export Application Insights User.svg Page-1 -->
<svg xmlns="http://www.w3.org/2000/svg" xmlns:xlink="http://www.w3.org/1999/xlink" xmlns:ev="http://www.w3.org/2001/xml-events"
		width="0.930551in" height="1.42984in" viewBox="0 0 66.9997 102.949" xml:space="preserve" color-interpolation-filters="sRGB"
		class="st3">
	<style type="text/css">
	<![CDATA[
		.st1 {fill:#59b4d9;stroke:none;stroke-linecap:butt;stroke-width:12.24}
		.st2 {fill:#ffffff;fill-opacity:0.2;stroke:none;stroke-linecap:butt;stroke-width:12.24}
		.st3 {fill:none;fill-rule:evenodd;font-size:12px;overflow:visible;stroke-linecap:square;stroke-miterlimit:3}
	]]>
	</style>

	<g>
		<title>Page-1</title>
		<g id="group12900-1" transform="translate(12.24,-34.0157)">
			<title>Application Insights User.12900</title>
			<g id="group12901-2">
				<title>Sheet.12901</title>
				<g id="shape12902-3" transform="translate(0.00114918,0)">
					<title>Sheet.12902</title>
					<path d="M33.16 57.9 C33.16 64.33 27.83 69.54 21.26 69.54 C14.68 69.54 9.36 64.33 9.36 57.9 C9.36 51.47 14.68
								 46.26 21.26 46.26 C27.83 46.26 33.16 51.47 33.16 57.9 ZM29.96 73.53 L21.26 85.46 L12.55 73.53 L0
								 73.53 L0 102.95 L42.52 102.95 L42.52 73.53 L29.96 73.53 Z" class="st1"/>
				</g>
				<g id="shape12903-5">
					<title>Sheet.12903</title>
					<path d="M9.36 57.9 C9.36 64.23 14.53 69.38 20.97 69.53 L23.96 46.57 A11.917 11.7581 -180 0 0 21.26 46.26 C14.69
								 46.26 9.36 51.47 9.36 57.9 ZM12.56 73.53 L0 73.53 L0 102.95 L16.67 102.95 L19.3 82.78 L12.56 73.53
								 Z" class="st2"/>
				</g>
			</g>
		</g>
	</g>
</svg>
